X: 32297
T: Pigeon On The Gate, The
R: reel
M: 4/4
K: Edorian
d|BE~E2 BAdA|~B2Bd BAFE|D2DF AD~D2|DEFA BAFA|
BE~E2 BAdA|~B2Bd BAFE|DEFA dfec|dBAF E3:|
A|Beed e3d|Bdef gfed|BABc d3B|AF~F2 DEFA|
Beed efed|Bdef g2fg|afge fdef|dBAF E3:|

